svgs/light/face-unamused.svg

<svg xmlns="http://www.w3.org/2000/svg" viewBox="0 0 512 512"><!--! Font Awesome Pro 6.4.2 by @fontawesome - https://fontawesome.com License - https://fontawesome.com/license (Commercial License) Copyright 2023 Fonticons, Inc. --><path d="M480 256A224 224 0 1 0 32 256a224 224 0 1 0 448 0zM0 256a256 256 0 1 1 512 0A256 256 0 1 1 0 256zM316.1 394.7c-11.7-13-31.6-26.7-60.1-26.7s-48.4 13.7-60.1 26.7c-5.9 6.6-16 7.1-22.6 1.2s-7.1-16-1.2-22.6C188.2 355.4 216.3 336 256 336s67.8 19.4 83.9 37.3c5.9 6.6 5.4 16.7-1.2 22.6s-16.7 5.4-22.6-1.2zM112 192h64c17.7 0 32 14.3 32 32s-14.3 32-32 32s-32-14.3-32-32H112c-8.8 0-16-7.2-16-16s7.2-16 16-16zm176 16c0-8.8 7.2-16 16-16h64c17.7 0 32 14.3 32 32s-14.3 32-32 32s-32-14.3-32-32H304c-8.8 0-16-7.2-16-16z"/></svg>

<svg xmlns="http://www.w3.org/2000/svg" viewBox="0 0 512 512"><!--! Font Awesome Pro 6.1.1 by @fontawesome - https://fontawesome.com License - https://fontawesome.com/license (Commercial License) Copyright 2022 Fonticons, Inc. --><path d="M256 368C227.5 368 207.6 381.7 195.9 394.7C189.1 401.3 179.9 401.8 173.3 395.9C166.7 389.1 166.2 379.9 172.1 373.3C188.2 355.4 216.3 336 256 336C295.7 336 323.8 355.4 339.9 373.3C345.8 379.9 345.3 389.1 338.7 395.9C332.1 401.8 322 401.3 316.1 394.7C304.4 381.7 284.5 368 256 368H256zM176 192C193.7 192 208 206.3 208 224C208 241.7 193.7 256 176 256C158.3 256 144 241.7 144 224H112C103.2 224 96 216.8 96 208C96 199.2 103.2 192 112 192H176zM288 208C288 199.2 295.2 192 304 192H368C385.7 192 400 206.3 400 224C400 241.7 385.7 256 368 256C350.3 256 336 241.7 336 224H304C295.2 224 288 216.8 288 208zM512 256C512 397.4 397.4 512 256 512C114.6 512 0 397.4 0 256C0 114.6 114.6 0 256 0C397.4 0 512 114.6 512 256zM256 32C132.3 32 32 132.3 32 256C32 379.7 132.3 480 256 480C379.7 480 480 379.7 480 256C480 132.3 379.7 32 256 32z"/></svg>
